!!!OTL: Die Koenigskinder Elissko mila srdeczna
!!!ARE: Europa, Osteuropa, Tschechoslowakei
!!!ARD: Europa%Osteuropa%Tschechoslowakei@
!!!ARL: 49.75/15.00@
!!!YOR: 1, S. 217
!!    15?? Handschrift
!!!SCT: Q2020F
!!!YEM: Copyright 1995, estate of Helmut Schaffrath.
**kern
*ICvox
*Ivox
*M6/4
*k[b-e-]
*g:
=1
{2g
4b-
2a
4g
=2
2a
4a
2dd}
{4dd
=3
2g
4a
2b-
4g
=4
2.fn
2.r}
=5
{2a
4a
2cc
4cc
=6
2g
4g
2b-}
{4a
=7
2g
4e
2d
4fn
=8
2.g
2.r}
==
!!!AGN: Ballade, Liebe, Trennung, Tod
!! Eingeklammerte Pausen gespielt.
!!    Die"Elslein"-Melodie wird in direkten Zusammenhang zur Balladengruppe
!!    gestellt.
!!!ONB: ESAC (Essen Associative Code) Database: BALLADE
!!!AMT: compound duple
!!!AIN: vox
!!!EED: Helmut Schaffrath
!!!EEV: 1.0
*-
!!!title: @{OTL} [@{SCT}]
